week1assignment/img/SVG/logo_laliga.svg

<svg width="135" height="190" viewBox="0 0 135 190" fill="none" xmlns="http://www.w3.org/2000/svg">
<g clip-path="url(#clip0_322_288)">
<path d="M18.9999 29.23C18.8599 29.46 18.8599 29.78 19.0499 30.01L19.3299 30.29L43.0099 44.05L43.0599 44.1C43.2899 44.24 43.6099 44.24 43.8899 44.05C43.9799 44 44.0299 43.91 44.0699 43.87C44.1199 43.82 44.1199 43.78 44.1199 43.78C46.3199 39.93 49.3499 36.44 53.1999 33.73C57.0999 30.98 61.3699 29.28 65.7699 28.5H65.8599C65.9499 28.5 66.0399 28.45 66.1399 28.36C66.3699 28.18 66.5099 27.9 66.4599 27.63V27.58L61.4399 0.69V0.64C61.4399 0.55 61.3899 0.41 61.2999 0.32C61.1199 0.09 60.8399 0 60.6099 0H60.5599C52.2099 1.51 43.8999 4.86 36.5199 10.09C29.0899 15.23 23.2099 21.84 18.9899 29.22" fill="#F8F8FF"/>
<path d="M5.51006 81.21C5.60006 81.44 5.88006 81.62 6.15006 81.67C6.29006 81.67 6.43006 81.67 6.52006 81.62L32.0801 71.8H32.1301C32.4101 71.71 32.5901 71.43 32.5901 71.16C32.5901 71.07 32.5901 70.98 32.5401 70.88C32.5401 70.83 32.4901 70.79 32.4901 70.74C30.8401 66.61 30.0601 62.07 30.3301 57.34C30.6101 52.61 31.9801 48.16 34.0901 44.26C34.0901 44.21 34.1401 44.21 34.1401 44.17C34.1901 44.08 34.1901 43.99 34.2301 43.89C34.2301 43.57 34.0901 43.29 33.8601 43.16L33.8101 43.11L9.68006 30.17H9.63006C9.54006 30.12 9.40006 30.08 9.31006 30.08C9.03006 30.08 8.76006 30.22 8.62006 30.45C8.62006 30.45 8.62006 30.5 8.57006 30.5C4.53006 37.98 1.92006 46.51 1.41006 55.55C0.860056 64.59 2.37006 73.31 5.49006 81.2" fill="#F8F8FF"/>
<path d="M37.9401 123.93C38.2201 123.98 38.4901 123.93 38.6701 123.7C38.7601 123.61 38.8101 123.47 38.8501 123.38L46.9701 97.23V97.18C47.0601 96.9 46.9701 96.58 46.7401 96.4C46.6501 96.35 46.6001 96.31 46.5101 96.26C46.4601 96.26 46.4201 96.21 46.3701 96.21C42.1001 94.93 38.0701 92.77 34.5301 89.6C31.0001 86.43 28.3801 82.63 26.6401 78.54C26.6401 78.54 26.6234 78.51 26.5901 78.45C26.5401 78.36 26.5001 78.27 26.4101 78.22C26.1801 78.04 25.8601 77.99 25.6301 78.08H25.5801L0.500059 88.97H0.450059C0.360059 89.02 0.270059 89.06 0.170059 89.15C-0.00994107 89.38 -0.0599411 89.65 0.0300589 89.88C0.0300589 89.88 0.0300589 89.93 0.0800589 89.93H0.0900589C3.44006 97.73 8.53006 105.07 15.2801 111.13C22.0701 117.23 29.8201 121.5 37.9501 123.93" fill="#F8F8FF"/>
<path d="M91.3098 125.21C91.5398 125.03 91.6298 124.75 91.6298 124.48C91.6298 124.34 91.5798 124.25 91.4898 124.11L76.2598 101.4L76.2098 101.35C76.0298 101.12 75.7498 100.98 75.4798 101.03C75.3898 101.03 75.2998 101.08 75.1998 101.12C75.1498 101.12 75.1098 101.17 75.1098 101.21C71.4398 103.73 67.2198 105.52 62.5398 106.26C57.8598 107.04 53.2298 106.72 48.9598 105.48C48.9598 105.48 48.9298 105.463 48.8698 105.43C48.7798 105.43 48.6898 105.38 48.5898 105.43C48.2698 105.48 48.0398 105.71 47.9898 105.98V106.03L40.6898 132.41V132.46C40.6398 132.55 40.6398 132.69 40.6898 132.78C40.7398 133.06 40.9198 133.28 41.1898 133.38H41.2398C49.4098 135.67 58.3098 136.32 67.2598 134.85C76.1598 133.38 84.2798 130.03 91.2998 125.21" fill="#F8F8FF"/>
<path d="M126.08 84.47C126.08 84.19 125.94 83.92 125.71 83.78C125.62 83.73 125.48 83.69 125.34 83.69L98.0402 81.58H97.9902C97.7102 81.58 97.4402 81.72 97.3002 81.99C97.2502 82.08 97.2102 82.17 97.2102 82.27V82.41C96.9302 86.86 95.7002 91.27 93.4002 95.39C91.1102 99.57 87.9902 102.96 84.3602 105.53C84.3102 105.53 84.3102 105.58 84.2702 105.58C84.1802 105.63 84.1302 105.72 84.0902 105.81C83.9502 106.09 83.9502 106.41 84.1402 106.64L84.1902 106.69L100.39 128.76L100.44 128.81C100.49 128.9 100.58 128.99 100.72 129.04C101 129.18 101.27 129.13 101.5 128.99L101.55 128.94C108.43 123.94 114.44 117.33 118.85 109.44C123.07 101.46 125.5 92.97 126.1 84.48" fill="#F8F8FF"/>
<path d="M115.76 31.8C115.53 31.62 115.26 31.57 114.98 31.66C114.84 31.71 114.75 31.8 114.66 31.89L95.8499 51.76L95.7999 51.81C95.6199 52.04 95.5699 52.31 95.6599 52.59C95.7099 52.68 95.7499 52.77 95.7999 52.82C95.7999 52.82 95.8299 52.85 95.8899 52.91C99.1499 55.94 101.81 59.7 103.6 64.06C105.39 68.46 106.08 73.05 105.8 77.5V77.59C105.8 77.68 105.8 77.77 105.85 77.87C105.99 78.15 106.22 78.33 106.49 78.33H106.54L133.89 79.66H133.94C134.03 79.66 134.17 79.66 134.26 79.61C134.54 79.52 134.67 79.24 134.72 79.01V78.96C135.18 70.47 133.85 61.66 130.45 53.27C127.05 44.83 122.01 37.58 115.77 31.8" fill="#F8F8FF"/>
<path d="M67.91 7.34C67.63 7.39 67.41 7.57 67.31 7.84C67.26 7.98 67.26 8.12 67.31 8.21L71.3 35.28V35.33C71.35 35.61 71.58 35.83 71.85 35.93C71.94 35.98 72.03 35.98 72.13 35.98H72.27C76.67 35.29 81.26 35.48 85.81 36.81C90.35 38.14 94.39 40.43 97.74 43.37C97.74 43.37 97.79 43.42 97.83 43.42C97.92 43.47 98.01 43.51 98.11 43.56C98.39 43.65 98.71 43.56 98.89 43.33L98.94 43.28L116.83 22.59L116.88 22.54C116.97 22.45 117.02 22.36 117.02 22.26C117.11 21.98 117.02 21.71 116.84 21.53L116.79 21.48C110.41 15.88 102.61 11.48 93.94 9C85.13 6.48 76.32 6.02 67.92 7.35" fill="#F8F8FF"/>
<path d="M66.21 46.02C53.73 46.02 43.54 56.16 43.54 68.69C43.54 81.22 53.68 91.31 66.21 91.31C78.74 91.31 88.83 81.17 88.83 68.69C88.88 56.16 78.74 46.02 66.21 46.02ZM82.68 81.44C83.05 80.52 83.14 79.47 83.23 78.6C82.77 79.01 82.27 79.43 81.76 79.84C80.2 80.99 78.5 81.72 76.9 82.04L72.54 77.27L72.49 77.32L75.66 82.92C74.83 84.39 73.6 85.76 72.04 86.91C71.49 87.28 70.98 87.64 70.43 87.92C71.26 88.06 72.31 88.29 73.27 88.24C71.07 89.02 68.73 89.43 66.25 89.43C63.77 89.43 61.43 89.02 59.23 88.24C60.19 88.29 61.25 88.06 62.07 87.92C61.52 87.64 60.97 87.28 60.46 86.91C58.9 85.76 57.66 84.39 56.84 82.92L60.01 77.28L59.96 77.23L55.56 82C53.95 81.68 52.26 80.94 50.7 79.8C50.15 79.43 49.69 79.02 49.23 78.56C49.32 79.39 49.46 80.49 49.78 81.4C47.03 77.87 45.38 73.46 45.38 68.64V67.95C45.61 68.91 46.21 69.88 46.62 70.66C46.71 70.06 46.9 69.42 47.08 68.78C47.68 66.9 48.64 65.29 49.79 64.05L56.08 65.33L56.13 65.24L50.26 62.58C50.08 60.93 50.26 59.14 50.86 57.3C51.04 56.66 51.32 56.06 51.59 55.51C50.81 55.88 49.71 56.34 48.93 57.02C51.64 52.94 55.77 49.86 60.63 48.53C59.71 49.08 58.93 49.95 58.29 50.59C58.89 50.5 59.53 50.45 60.22 50.45C62.15 50.45 63.98 50.86 65.5 51.55L66.23 57.88H66.32L67.05 51.55C68.56 50.86 70.35 50.45 72.33 50.45C72.97 50.45 73.61 50.5 74.26 50.59C73.62 49.95 72.84 49.03 71.97 48.53C76.79 49.91 80.92 52.93 83.67 57.02C82.89 56.33 81.83 55.87 81.01 55.51C81.29 56.06 81.51 56.66 81.74 57.3C82.34 59.14 82.52 60.97 82.34 62.58L76.51 65.24L76.56 65.33L82.8 64.05C83.95 65.29 84.86 66.89 85.51 68.78C85.69 69.42 85.88 70.02 85.97 70.66C86.38 69.88 86.93 68.96 87.21 67.95V68.59C87.07 73.45 85.47 77.9 82.71 81.44" fill="#F8F8FF"/>
<path d="M57.0801 65.7L60.5601 76.44H71.9001L75.3801 65.7L66.2501 59.05L57.0801 65.7Z" fill="#F8F8FF"/>
<path d="M0.5 150.81V181.19H17.94V174.31H8.4V150.81H0.5Z" fill="#F8F8FF"/>
<path d="M32.48 163.2C28.95 163.2 26.7 165.82 26.7 169.03C26.7 172.43 28.81 175.18 32.21 175.18C35.61 175.18 38.22 172.75 38.22 169.22C38.22 165.69 35.7 163.21 32.48 163.21M19.27 169.13C19.27 162.34 24.27 156.37 31.02 156.37C33.96 156.37 35.84 157.38 37.99 159.35V156.83H45.24V181.19H37.85V178.8C37.85 178.8 35.19 181.78 30.6 181.78C23.86 181.78 19.27 176.92 19.27 169.12" fill="#F8F8FF"/>
<path d="M67.0301 181.19H49.6001V150.81H57.4901V174.31H67.0301V181.19Z" fill="#F8F8FF"/>
<path d="M77.6301 181.19H70.2901V156.83H77.6301V181.19ZM69.6001 150.63C69.6001 148.15 71.5701 146.13 74.0001 146.13C76.4301 146.13 78.4501 148.06 78.4501 150.53C78.4501 153 76.4301 155.07 73.9101 155.07C71.5201 155.07 69.6001 153.14 69.6001 150.62" fill="#F8F8FF"/>
<path d="M93.09 162.65C89.65 162.65 87.95 165.45 87.95 168.48C87.95 171.51 89.79 174.17 93.04 174.17C96.71 174.17 98.68 171.23 98.68 168.48C98.68 165.27 96.84 162.65 93.08 162.65M80.78 168.52C80.78 161.91 84.96 156.36 91.33 156.36C94.4 156.36 96.51 157.37 98.58 159.57V156.82H105.6V178.29C105.6 185.81 99.96 189.76 93.17 189.76C87.21 189.76 82.02 186.73 81.24 181.27H89.5C90.51 182.92 91.56 183.24 93.35 183.24C95.92 183.24 98.26 182.05 98.26 179.39C98.26 178.75 98.31 178.2 98.21 177.55C96.79 178.83 94.13 180.35 91.28 180.35C85.04 180.4 80.77 175.17 80.77 168.51" fill="#F8F8FF"/>
<path d="M122.05 163.2C118.52 163.2 116.27 165.82 116.27 169.03C116.27 172.43 118.38 175.18 121.78 175.18C125.18 175.18 127.79 172.75 127.79 169.22C127.79 165.69 125.27 163.21 122.05 163.21M108.84 169.13C108.84 162.34 113.84 156.37 120.59 156.37C123.53 156.37 125.41 157.38 127.56 159.35V156.83H134.81V181.19H127.42V178.8C127.42 178.8 124.76 181.78 120.17 181.78C113.43 181.78 108.84 176.92 108.84 169.12" fill="#F8F8FF"/>
</g>
<defs>
<clipPath id="clip0_322_288">
<rect width="134.8" height="189.77" fill="white"/>
</clipPath>
</defs>
</svg>

<svg fill="none" height="190" viewBox="0 0 135 190" width="135" xmlns="http://www.w3.org/2000/svg" xmlns:xlink="http://www.w3.org/1999/xlink"><clipPath id="a"><path d="m0 0h134.8v189.77h-134.8z"/></clipPath><g clip-path="url(#a)" fill="#f8f8ff"><path d="m18.9999 29.23c-.14.23-.14.55.05.78l.28.28 23.68 13.76.05.05c.23.14.55.14.83-.05.09-.05.14-.14.18-.18.05-.05.05-.09.05-.09 2.2-3.85 5.23-7.34 9.08-10.05 3.9-2.75 8.17-4.45 12.57-5.23h.09c.09 0 .18-.05.28-.14.23-.18.37-.46.32-.73v-.05l-5.02-26.89v-.05c0-.09-.05-.23-.14-.32-.18-.23-.46-.32-.69-.32h-.05c-8.35 1.51-16.66 4.86-24.04 10.09-7.43 5.14-13.31 11.75-17.53 19.13"/><path d="m5.51006 81.21c.09.23.37.41.64.46.14 0 .28 0 .37-.05l25.56004-9.82h.05c.28-.09.46-.37.46-.64 0-.09 0-.18-.05-.28 0-.05-.05-.09-.05-.14-1.65-4.13-2.43-8.67-2.16-13.4.28-4.73 1.65-9.18 3.76-13.08 0-.05.05-.05.05-.09.05-.09.05-.18.09-.28 0-.32-.14-.6-.37-.73l-.05-.05-24.13004-12.94h-.05c-.09-.05-.23-.09-.32-.09-.28 0-.55.14-.69.37 0 0 0 .05-.05.05-4.04 7.48-6.65 16.01-7.16 25.05-.550004 9.04.96 17.76 4.08 25.65"/><path d="m37.9401 123.93c.28.05.55 0 .73-.23.09-.09.14-.23.18-.32l8.12-26.15v-.05c.09-.28 0-.6-.23-.78-.09-.05-.14-.09-.23-.14-.05 0-.09-.05-.14-.05-4.27-1.28-8.3-3.44-11.84-6.61-3.53-3.17-6.15-6.97-7.89-11.06 0 0-.0167-.03-.05-.09-.05-.09-.09-.18-.18-.23-.23-.18-.55-.23-.78-.14h-.05l-25.080041 10.89h-.05c-.09.05-.18.09-.28.18-.18000007.23-.2300001.5-.1400001.73 0 0 0 .05.05.05h.01c3.3500011 7.8 8.4400011 15.14 15.1900411 21.2 6.79 6.1 14.54 10.37 22.67 12.8"/><path d="m91.3098 125.21c.23-.18.32-.46.32-.73 0-.14-.05-.23-.14-.37l-15.23-22.71-.05-.05c-.18-.23-.46-.37-.73-.32-.09 0-.18.05-.28.09-.05 0-.09.05-.09.09-3.67 2.52-7.89 4.31-12.57 5.05-4.68.78-9.31.46-13.58-.78 0 0-.03-.017-.09-.05-.09 0-.18-.05-.28 0-.32.05-.55.28-.6.55v.05l-7.3 26.38v.05c-.05.09-.05.23 0 .32.05.28.23.5.5.6h.05c8.17 2.29 17.07 2.94 26.02 1.47 8.9-1.47 17.02-4.82 24.04-9.64"/><path d="m126.08 84.47c0-.28-.14-.55-.37-.69-.09-.05-.23-.09-.37-.09l-27.2998-2.11h-.05c-.28 0-.55.14-.69.41-.05.09-.09.18-.09.28v.14c-.28 4.45-1.51 8.86-3.81 12.98-2.29 4.18-5.41 7.57-9.04 10.14-.05 0-.05.05-.09.05-.09.05-.14.14-.18.23-.14.28-.14.6.05.83l.05.05 16.1998 22.07.05.05c.05.09.14.18.28.23.28.14.55.09.78-.05l.05-.05c6.88-5 12.89-11.61 17.3-19.5 4.22-7.98 6.65-16.47 7.25-24.96"/><path d="m115.76 31.8c-.23-.18-.5-.23-.78-.14-.14.05-.23.14-.32.23l-18.8101 19.87-.05.05c-.18.23-.23.5-.14.78.05.09.09.18.14.23 0 0 .03.03.09.09 3.26 3.03 5.9201 6.79 7.7101 11.15 1.79 4.4 2.48 8.99 2.2 13.44v.09c0 .09 0 .18.05.28.14.28.37.46.64.46h.05l27.35 1.33h.05c.09 0 .23 0 .32-.05.28-.09.41-.37.46-.6v-.05c.46-8.49-.87-17.3-4.27-25.69-3.4-8.44-8.44-15.69-14.68-21.47"/><path d="m67.91 7.34c-.28.05-.5.23-.6.5-.05.14-.05.28 0 .37l3.99 27.07v.05c.05.28.28.5.55.6.09.05.18.05.28.05h.14c4.4-.69 8.99-.5 13.54.83 4.54 1.33 8.58 3.62 11.93 6.56 0 0 .05.05.09.05.09.05.18.09.28.14.28.09.6 0 .78-.23l.05-.05 17.89-20.69.05-.05c.09-.09.14-.18.14-.28.09-.28 0-.55-.18-.73l-.05-.05c-6.38-5.6-14.18-10-22.85-12.48-8.81-2.52-17.62-2.98-26.02-1.65"/><path d="m66.21 46.02c-12.48 0-22.67 10.14-22.67 22.67s10.14 22.62 22.67 22.62 22.62-10.14 22.62-22.62c.05-12.53-10.09-22.67-22.62-22.67zm16.47 35.42c.37-.92.46-1.97.55-2.84-.46.41-.96.83-1.47 1.24-1.56 1.15-3.26 1.88-4.86 2.2l-4.36-4.77-.05.05 3.17 5.6c-.83 1.47-2.06 2.84-3.62 3.99-.55.37-1.06.73-1.61 1.01.83.14 1.88.37 2.84.32-2.2.78-4.54 1.19-7.02 1.19s-4.82-.41-7.02-1.19c.96.05 2.02-.18 2.84-.32-.55-.28-1.1-.64-1.61-1.01-1.56-1.15-2.8-2.52-3.62-3.99l3.17-5.64-.05-.05-4.4 4.77c-1.61-.32-3.3-1.06-4.86-2.2-.55-.37-1.01-.78-1.47-1.24.09.83.23 1.93.55 2.84-2.75-3.53-4.4-7.94-4.4-12.76v-.69c.23.96.83 1.93 1.24 2.71.09-.6.28-1.24.46-1.88.6-1.88 1.56-3.49 2.71-4.73l6.29 1.28.05-.09-5.87-2.66c-.18-1.65 0-3.44.6-5.28.18-.64.46-1.24.73-1.79-.78.37-1.88.83-2.66 1.51 2.71-4.08 6.84-7.16 11.7-8.49-.92.55-1.7 1.42-2.34 2.06.6-.09 1.24-.14 1.93-.14 1.93 0 3.76.41 5.28 1.1l.73 6.33h.09l.73-6.33c1.51-.69 3.3-1.1 5.28-1.1.64 0 1.28.05 1.93.14-.64-.64-1.42-1.56-2.29-2.06 4.82 1.38 8.95 4.4 11.7 8.49-.78-.69-1.84-1.15-2.66-1.51.28.55.5 1.15.73 1.79.6 1.84.78 3.67.6 5.28l-5.83 2.66.05.09 6.24-1.28c1.15 1.24 2.06 2.84 2.71 4.73.18.64.37 1.24.46 1.88.41-.78.96-1.7 1.24-2.71v.64c-.14 4.86-1.74 9.31-4.5 12.85"/><path d="m57.0801 65.7 3.48 10.74h11.34l3.48-10.74-9.13-6.65z"/><path d="m.5 150.81v30.38h17.44v-6.88h-9.54v-23.5z"/><path d="m32.48 163.2c-3.53 0-5.78 2.62-5.78 5.83 0 3.4 2.11 6.15 5.51 6.15s6.01-2.43 6.01-5.96-2.52-6.01-5.74-6.01m-13.21 5.92c0-6.79 5-12.76 11.75-12.76 2.94 0 4.82 1.01 6.97 2.98v-2.52h7.25v24.36h-7.39v-2.39s-2.66 2.98-7.25 2.98c-6.74 0-11.33-4.86-11.33-12.66"/><path d="m67.0301 181.19h-17.43v-30.38h7.89v23.5h9.54z"/><path d="m77.6301 181.19h-7.34v-24.36h7.34zm-8.03-30.56c0-2.48 1.97-4.5 4.4-4.5s4.45 1.93 4.45 4.4-2.02 4.54-4.54 4.54c-2.39 0-4.31-1.93-4.31-4.45"/><path d="m93.09 162.65c-3.44 0-5.14 2.8-5.14 5.83s1.84 5.69 5.09 5.69c3.67 0 5.64-2.94 5.64-5.69 0-3.21-1.84-5.83-5.6-5.83m-12.3 5.87c0-6.61 4.18-12.16 10.55-12.16 3.07 0 5.18 1.01 7.25 3.21v-2.75h7.02v21.47c0 7.52-5.64 11.47-12.43 11.47-5.96 0-11.15-3.03-11.93-8.49h8.26c1.01 1.65 2.06 1.97 3.85 1.97 2.57 0 4.91-1.19 4.91-3.85 0-.64.05-1.19-.05-1.84-1.42 1.28-4.08 2.8-6.93 2.8-6.24.05-10.51-5.18-10.51-11.84"/><path d="m122.05 163.2c-3.53 0-5.78 2.62-5.78 5.83 0 3.4 2.11 6.15 5.51 6.15s6.01-2.43 6.01-5.96-2.52-6.01-5.74-6.01m-13.21 5.92c0-6.79 5-12.76 11.75-12.76 2.94 0 4.82 1.01 6.97 2.98v-2.52h7.25v24.36h-7.39v-2.39s-2.66 2.98-7.25 2.98c-6.74 0-11.33-4.86-11.33-12.66"/></g></svg>
